X:1
T:Dr Robert Runcie MC  "CYMRU"
M:3/4
L:1/8
Q:80
C:P/M Angus MacDonald, MBE
S:Retreat
K:HP
|: {g}c3/2d/2{gef}e2{g}A2|
{gfg}fe{gef}e2{d}c2|
{ag}a3/2e/2{gfg}fe{gcd}c{e}A|  !
{g}c3/2d/2{e}B4:|2 |
{g}c3/2d/2{gef}e2{g}A2|
{gfg}fe{gef}e2{d}c2|  !
{ag}a3/2e/2{gfg}fe{gcd}c{e}A|
{g}B3/2c/2{G}A4:| |:
{g}f3/2g/2{gfg}f2{ag}a2|  !
{fg}fd{gef}e2{d}c2|
{g}((3def){gef}e2{ag}a3/2c/2|
{gBd}B{e}A{GdG}B4|1 |  !
{g}f3/2g/2{gfg}f2{ag}a2|
{fg}fd{gef}e2{d}c2|
{ag}a3/2e/2{gfg}fe{gcd}c{e}A|  !
{g}B3/2c/2{G}A4:|

